X: 1
T:Out in the Ocean
M:6/8
L:1/8
Q:80
C:Arranged by T. Tully
S:Jig
K:HP
B|
c{e}c{G}c{g}cBA|
{g}cecB{e}B{G}B|
c{e}c{G}c{g}ecA|  !
{gcd}cB{G}B{g}BedBc{G}c{g}ecA|
{g}cecB{e}B{G}B|
c{e}c{G}c{g}ABc|  !
{g}BAG{g}A2:|
e|
f{g}f{e}f{g}fec|
{g}ef{e}f{g}fec|  !
e{g}e{A}e{g}efg|
a{g}a{g}a{cd}cBA{g}A2B{g}c{G}ce|
{g}faf{g}efa|  !
c{e}c{G}c{g}ABc|
{g}BAG{g}A2:|
